styles/emoji-one/1f1f0-1f1f2.svg

<svg xmlns="http://www.w3.org/2000/svg" viewBox="0 0 64 64" enable-background="new 0 0 64 64"><path fill="#428bc1" d="M11.006,48v5.404C16.416,58.715,23.82,62,32,62c10.684,0,20.057-5.59,25.373-14H11.006z"/><path fill="#ed4c5c" d="M11.006,32v16h46.367C60.299,43.369,62,37.885,62,32H11.006z"/><path fill="#fff" d="M11.006,32H62c0-5.885-1.701-11.368-4.627-16H11.006V32z"/><path fill="#ffce31" d="M11.006,16h46.367C52.057,7.59,42.684,2,32,2c-8.18,0-15.584,3.285-20.994,8.596V16z"/><path fill="#75a843" d="M11.006,10.578C5.451,16.023,2,23.607,2,32s3.451,15.977,9.006,21.422L32.426,32L11.006,10.578z"/><g fill="#f9f9f9"><path d="m18 41.801c-4.564-.928-8-4.963-8-9.801s3.436-8.872 8-9.8c-.646-.13-1.314-.2-2-.2-5.523 0-10 4.478-10 10 0 5.523 4.477 10 10 10 .686 0 1.354-.07 2-.199"/><path d="m16.764 36l1.236-.94 1.236.94-.466-1.525 1.23-.975h-1.525l-.475-1.5-.461 1.5h-1.539l1.23.975z"/><path d="m16.764 40l1.236-.94 1.236.94-.466-1.525 1.23-.975h-1.525l-.475-1.5-.461 1.5h-1.539l1.23.975z"/><path d="m16.764 28l1.236-.94 1.236.94-.466-1.526 1.23-.974h-1.525l-.475-1.5-.461 1.5h-1.539l1.23.974z"/><path d="m16.764 32l1.236-.94 1.236.94-.466-1.526 1.23-.974h-1.525l-.475-1.5-.461 1.5h-1.539l1.23.974z"/></g></svg>

<svg xmlns="http://www.w3.org/2000/svg" viewBox="0 0 64 64"><path fill="#428bc1" d="M11.006 48v5.404C16.416 58.715 23.82 62 32 62c10.684 0 20.057-5.59 25.373-14H11.006z"/><path fill="#ed4c5c" d="M11.006 32v16h46.367A29.854 29.854 0 0 0 62 32H11.006z"/><path fill="#fff" d="M11.006 32H62a29.856 29.856 0 0 0-4.627-16H11.006v16z"/><path fill="#ffce31" d="M11.006 16h46.367C52.057 7.59 42.684 2 32 2c-8.18 0-15.584 3.285-20.994 8.596V16z"/><path fill="#75a843" d="M11.006 10.578C5.451 16.023 2 23.607 2 32s3.451 15.977 9.006 21.422L32.426 32l-21.42-21.422z"/><g fill="#f9f9f9"><path d="M18 41.801c-4.564-.928-8-4.963-8-9.801s3.436-8.872 8-9.8c-.646-.13-1.314-.2-2-.2-5.523 0-10 4.478-10 10 0 5.523 4.477 10 10 10a10.2 10.2 0 0 0 2-.199"/><path d="M16.764 36L18 35.06l1.236.94-.466-1.525L20 33.5h-1.525L18 32l-.461 1.5H16l1.23.975zM16.764 40L18 39.06l1.236.94-.466-1.525L20 37.5h-1.525L18 36l-.461 1.5H16l1.23.975zM16.764 28L18 27.06l1.236.94-.466-1.526L20 25.5h-1.525L18 24l-.461 1.5H16l1.23.974zM16.764 32L18 31.06l1.236.94-.466-1.526L20 29.5h-1.525L18 28l-.461 1.5H16l1.23.974z"/></g></svg>
